X: 995
T: Down the hill
C: anon.
O: Ireland
B: Francis O'Neill: "The Dance Music of Ireland" (1907) no. 995
Z: Transcribed by Frank Nordberg - http://www.musicaviva.com
F: http://www.musicaviva.com/abc/tunes/ireland/oneill-1001/oneill-1001-099
5.abc
M: 6/8
L: 1/8
K: Gm
(G/F/)|(DG)G (G2A)|(B/A/G/A/B/G/) (A/G/F/G/A/F/)|(G/F/D/C/D/E/) (F2G)|(A{
c}BG) FDC|(DG)G (G2B)|(A/G/F/G/A/B/) cAc|(d/e/fd) (cAd)|G3 G2:|
|:(B/c/)|(dg)g (g2a)|(b/a/g/a/b/g/) afd|(cf)f (f2g)|(a/g/f/g/a/f/) gfd|(d
g)g (g2a)|(b/a/g/a/b/g/) (a/g/f/g/a/f/)|(gfd) (cAD)|G3G2:|
|:(=B/c/)|gd=B G>(Bd/B/)|G>(=BdB) c_BA|fcG (F>Ac/A/)|(F/G/AB) (cBA)
|(B/A/G/A/B/G/) (c/B/A/B/c/A/)|(dg^f) (gab)|(gfd) (cAd)|G3G2:|
W:
W:
W: From Musica Viva - http://www.musicaviva.com
W: the Internet center for free sheet music downloads.


